!!!OTL: Badzcie dusze nabozne
**kern
*staff1
=1-
*clefF3
*k[]
0F
=2
1C
1F
=3
0C
=4
1F
1E
=5
0E
=6
1E
1F
=7
0E
=8
1F
0C
0F
!!linebreak:original
=9
0F
=10
0C
=11
1D
1C
=12
1F
1F
=13
0C
=14
0F
=15
1E
0F
1E
=16
0B
=17
0E
=18
!!linebreak:original
0E
=19
0F
=20
0C
=21
1F
1C
=22
0F
=23
0E
=24
1F
1E
=25
1E
1F
=26
0C
=27
0F
==
*-
!!title: @{OTL}, @{GTL}, ed. @{ENC}
!!!pag:
!!!GTL: Hymnbook D
!!!EFL: 
!!!YEM: Creative Commons CC/BY/NC/SA 4.0
!!!ENC: Marcin Konik
!!!END: 2015-0m-dd
!!!EED: Marcin Konik
!!!EEV: 
!!!ONB: Encoded in vim by Marcin Konik
!!!CharacterEncoding: utf-8
!!!RDF**kern: l=long note in original notation
!!!RDF**kern: i=editorial accidental
!!muse2ps: z14jc180F
!!!COM: Anonim
!!!CDT: [?]
!!!TXO: Polish
!!!ODT: 
!!!GTL: Hymnbook D
!!!ARL: Opactwo św. Wojciecha, Staniątki 
!!!voices:	1
